!!!!SEGMENT: Ver3023-Lasso_che_se_creduto.krn
!!!id: Ver3023
!!!AGN: Madrigal
!!!SCT: Slim (1972)
!!!voices: 4
!!!COM: Philippe Verdelot
!!!OTL: Lasso, che se creduto
**kern	**kern	**kern	**kern
*part4	*part3	*part2	*part1
*staff4	*staff3	*staff2	*staff1
*I"Bassus	*I"Tenor	*I"Altus	*I"Superius
*I'B	*I'T	*I'A	*I'S
*clefF4	*clefGv2	*clefGv2	*clefG2
*k[]	*k[]	*k[]	*k[]
*C:	*C:	*C:	*C:
*M2/1	*M2/1	*M2/1	*M2/1
*met(C|)	*met(C|)	*met(C|)	*met(C|)
=1	=1	=1	=1
0A	0r	1r	0r
.	.	[1e	.
=2	=2	=2	=2
1.G	0r	1e]	0r
.	.	[1d	.
2F	.	.	.
=3	=3	=3	=3
2G	0r	2d]	0r
2A	.	2c	.
1B-i	.	2.d	.
.	.	4e	.
=4	=4	=4	=4
0A	1r	2f	0a
.	.	2e	.
.	[1e	2r	.
.	.	2A	.
=5	=5	=5	=5
0r	1e]	2c	1.g
.	.	2c	.
.	[1d	[1B-X	.
.	.	.	2f
=6	=6	=6	=6
0r	2d]	2B-]	2g
.	2c	2A	2a
.	2d	1G	1b-i
.	2e	.	.
=7	=7	=7	=7
0A	1f	4F	1a
.	.	4G	.
.	.	4A	.
.	.	4B	.
.	1e	4c	1a
.	.	4d	.
.	.	4e	.
.	.	4f	.
=8	=8	=8	=8
1.G	1e	2g	1.b-i
.	.	2g	.
.	[1d	2g	.
2F	.	2a	2a
=9	=9	=9	=9
2G	2d]	2g	2b-i
2A	2c	2.f	2.a
1B-i	2.d	.	.
.	.	4e	8gL
.	.	.	8fJ
.	.	[2d	2g
.	4e	.	.
=10	=10	=10	=10
0A	1f	2d]	0a
.	.	4c#i	.
.	.	4B	.
.	1e	1c#i	.
=11	=11	=11	=11
2r	2r	2r	2r
2E	2e	2B	2g
2E	2e	2B	2g
2E	2e	2B	2g
=12	=12	=12	=12
2.A	2e	2c	1.a
.	2e	2c	.
4G	.	.	.
2F	1f	2c	.
2F	.	2c	2a
=13	=13	=13	=13
1C	1e	1g	2cc
.	.	.	2cc
1D	2.d	1f	2b
.	.	.	2a
.	4c	.	.
=14	=14	=14	=14
1E	1B	1e	4g#i
.	.	.	4f#i
.	.	.	2g#i
1AA	1A	1e	[1a
=15	=15	=15	=15
1A	2r	2r	1a]
.	2A	2c	.
2G	2B	2d	1r
2F	2d	2f	.
=16	=16	=16	=16
2G	2d	2e	2r
2A	2c	2e	2e
2D	2d	2.d	2f
2D	2A	.	2a
.	.	4c	.
=17	=17	=17	=17
2r	2r	4B	2a
.	.	4A	.
2E	2e	2B	2g
2F	2c	1A	2a
2D	2d	.	2a
=18	=18	=18	=18
2D	2.A	1r	2r
2C	.	.	2e
.	4G	.	.
2.D	2.F	[1A	2f
.	.	.	2d
8CL	8EL	.	.
8BBJ	8DJ	.	.
=19	=19	=19	=19
4AA	2.E	1A]	2d
4GG	.	.	.
2AA	.	.	2c
.	4F	.	.
1GG	4G	2B	[1d
.	4A	.	.
.	[2B	2G	.
=20	=20	=20	=20
1D	4B]	2G	1d]
.	8AL	.	.
.	8GJ	.	.
.	2A	2F	.
1GG	1B	2G	1d
.	.	2G	.
=21	=21	=21	=21
2r	2r	2r	2r
2GG	2B	2d	2g
2D	2A	2d	2f
2D	2B	2f	2d
=22	=22	=22	=22
2C	2c	2e	2e
2D	2A	2.d	2f
1E	1G	.	1g
.	.	8c#iL	.
.	.	8BJ	.
.	.	2c#i	.
=23	=23	=23	=23
0D	0A	1d	1f#X
.	.	2r	2r
.	.	2d	2f#i
=24	=24	=24	=24
2r	2r	2d	2f#i
2D	2A	2d	2f#i
2G	2B	2d	2g
2G	2B	2d	2g
=25	=25	=25	=25
2F	2c	2.f	1a
2D	2d	.	.
.	.	4e	.
2.F	2.A	2d	2r
.	.	2c	2A
4E	4G	.	.
=26	=26	=26	=26
2D	2F	2B	2B
2C	2E	1A	2c
1BB	1D	.	1d
.	.	2G#i	.
=27	=27	=27	=27
1AA	1E	1A	1c#X
2r	2r	2r	2r
2AA	2A	2e	2ccni
=28	=28	=28	=28
2E	2G	2e	2b
2F	2A	2c	2a
2C	2c	2e	2g
2D	2A	2d	2f
=29	=29	=29	=29
2AA	2A	2c	2e
2AA	2A	2c	2e
1C	2r	2r	2r
.	2G	2c	2e
=30	=30	=30	=30
2C	2c	2e	2.g
2GG	2B	2d	.
.	.	.	4f
2C	2.G	2c	2e
2D	.	2B	2d
.	4F	.	.
=31	=31	=31	=31
2AA	2E	2A	2c
2AA	2E	2A	2c
1AA	1A	1c	1e
=32	=32	=32	=32
2D	2A	2f	2.d
2D	2.A	2f	.
.	.	.	4c
1E	.	1e	2B
.	8G#iL	.	.
.	8F#iJ	.	.
.	2G#i	.	2B
=33	=33	=33	=33
2AA	2A	1e	1A
2A	2c	.	.
2G	2d	2r	1r
2E	[2e	[2c	.
=34	=34	=34	=34
1F	2e]	2c]	1a
.	2A	2d	.
2E	2B	1e	2g
2C	[2c	.	2e
=35	=35	=35	=35
1D	2c]	2A	1f
.	2F	2B	.
2C	2G	1c	2e
2AA	2A	.	2c
=36	=36	=36	=36
1BB-X	1D	2F	1d
.	.	2G	.
1AA	[1E	2A	2c
.	.	[2A	2A
=37	=37	=37	=37
0r	1E]	4A]	1B
.	.	8G#iL	.
.	.	8F#iJ	.
.	.	2G#i	.
.	2r	[1A	1A
.	2e	.	.
=38	=38	=38	=38
1D	2.f	1A]	2r
.	.	.	2a
.	4e	.	.
2.F	2d	2r	2a
.	2c	2A	2a
4E	.	.	.
=39	=39	=39	=39
2D	2d	2.f	2a
2C	2A	.	2a
.	.	4e	.
2D	2r	2d	1a
2AA	2e	2c	.
=40	=40	=40	=40
1r	2f	2d	2a
.	2e	2A	2a
2r	1e	2A	2.cc
2A	.	[2c	.
.	.	.	4b
=41	=41	=41	=41
2.c	2e	4c]	2a
.	.	4d	.
.	1c	2e	2g
4B	.	.	.
2A	.	2f	2.cc
2G	2d	2g	.
.	.	.	4b
=42	=42	=42	=42
2.c	2.e	2r	2a
.	.	1e	2g
4B	4d	.	.
2A	2c	.	2a
2G	2B	2e	[2b
=43	=43	=43	=43
1A	2.c	2e	4b]
.	.	.	4a
.	.	2e	1a
.	8BL	.	.
.	8AJ	.	.
1E	1B	2r	.
.	.	2e	2g#i
=44	=44	=44	=44
2r	0A	2.f	[0al
2D	.	.	.
.	.	4e	.
2.F	.	2d	.
.	.	2c	.
4E	.	.	.
=45	=45	=45	=45
2D	2r	2.f	0a_
2C	2A	.	.
.	.	4e	.
2.F	2A	2d	.
.	[2f	2c	.
4E	.	.	.
=46	=46	=46	=46
2D	2f]	2d	0a_
2C	2e	2e	.
1D	1d	1f	.
=47	=47	=47	=47
00AAl	00c#Xl	00el	00a]
==	==	==	==
*-	*-	*-	*-
!!!system-decoration: [*]
!!!RDF**kern: i = editorial accidental
!!!RDF**kern: l = terminal long
!!!ENC: Benjamin Ory
!!!END: 2021/2/17
!!!EED: Benjamin Ory
!!!EEV: 2021/04/29
!!!YEC: Copyright 2021 Benjamin Ory, All Rights Reserved
!!!ONB: Translated from MusicXML on 2021/04/29
